!! J.S. Bach "Corrente" from Partita No. 1, for solo violin, BWV 1002.
!! From 'Neue Ausgabe Saemtlicher Werke' Serie VI: Kammermusikwerke,
!! Band 1 ('Werke fuer Violine') Baerenreiter Kassel (Basel) 1958; pp.12-13
!! This file has been error-checked using the double-entry method.
!! NOTE: The repeats at the end of bar 32 and at the end of the work
!!       have been expanded in this encoding.
!! NOTE: A single triple-stop occurs in bar 9 (and is repeated in bar 41).
**kern
*M3/4
8b
=1
8b
8B
8d
8f#
8b
8dd
=2
{8cc#
8f#
8A#}
8e
8d
8c#
=3
8B
8d
8f#
8b
8dd
8ff#
=4
{8ee
8a
8c#}
8g
8f#
8e
=5
8d
8f#
8a
8dd
8ff#
8aa
=6
{8gg
8b
8e}
8dd
8cc#
8b
=7
8a#
8gg
8ff#
8e
8d#
8an
=8
8g#
8ff#
8ee
8dn
8c#
8e
=9
8a#
8ee
{8B 8f# 8ee
8dd
8cc#}
8dd
=10
{8cc#
8f#
8A#}
8g
8f#
8e
=11
8d
8f#
8b
8dd
8ff#
8bb
=12
{8gg
8b
8e}
8g
8b
8dd
=13
{8cc#
8e
8A}
8c#
8e
8g
=14
{8f#
8dd
8aa}
8ee
8dd
8ccn
=15
8b
8g
8b
8dd
8gg
8bb
=16
{8ccc#
8ee
8g}
8ee
8aa
8ccc#
=17
8ddd
8aa
8ff#
8dd
8a
8ccc#
=18
8d
{8ddd
8ccc#
8bb
8aa#
8bb}
=19
{8ccc#
8ee
8a#}
8gg
8ff#
8ee
=20
8dd
8ff#
8bb
8gg#
8aan
8ff#
=21
8ee#
8gg#
8bb
8ddd
8ccc#
8b
=22
8a
8cc#
8ff#
8aa
8ccc#
8een
=23
8dd#
8ff#
8aa
8ccc#
8bb
8a
=24
8g#
8b
8ee#
8gg#
8bb
8f#
=25
8e#
8g#
8cc#
8ee#
8gg#
8bb
=26
{8aa
8cc#
8f#}
8ggn
8ff#
8een
=27
{8dd
8f#
8B}
8ccn
8b
8a
=28
{8g
8b
8dd}
8gg
8ee#
8ff#
=29
{8b
8e#
8G#}
8e#
8b
8dd
=30
8cc#
8a
8g#
8f#
8c#
8e#
=31
{8f#
8a#
8cc#}
8ee
8dd
8b
=32
{8cc#
8a#
4.f#}
8b
=33
8b
8B
8d
8f#
8b
8dd
=34
{8cc#
8f#
8A#}
8e
8d
8c#
=35
8B
8d
8f#
8b
8dd
8ff#
=36
{8ee
8a
8c#}
8g
8f#
8e
=37
8d
8f#
8a
8dd
8ff#
8aa
=38
{8gg
8b
8e}
8dd
8cc#
8b
=39
8a#
8gg
8ff#
8e
8d#
8an
=40
8g#
8ff#
8ee
8dn
8c#
8e
=41
8a#
8ee
{8B 8f# 8ee
8dd
8cc#}
8dd
=42
{8cc#
8f#
8A#}
8g
8f#
8e
=43
8d
8f#
8b
8dd
8ff#
8bb
=44
{8gg
8b
8e}
8g
8b
8dd
=45
{8cc#
8e
8A}
8c#
8e
8g
=46
{8f#
8dd
8aa}
8ee
8dd
8ccn
=47
8b
8g
8b
8dd
8gg
8bb
=48
{8ccc#
8ee
8g}
8ee
8aa
8ccc#
=49
8ddd
8aa
8ff#
8dd
8a
8ccc#
=50
8d
{8ddd
8ccc#
8bb
8aa#
8bb}
=51
{8ccc#
8ee
8a#}
8gg
8ff#
8ee
=52
8dd
8ff#
8bb
8gg#
8aan
8ff#
=53
8ee#
8gg#
8bb
8ddd
8ccc#
8b
=54
8a
8cc#
8ff#
8aa
8ccc#
8een
=55
8dd#
8ff#
8aa
8ccc#
8bb
8a
=56
8g#
8b
8ee#
8gg#
8bb
8f#
=57
8e#
8g#
8cc#
8ee#
8gg#
8bb
=58
{8aa
8cc#
8f#}
8ggn
8ff#
8een
=59
{8dd
8f#
8B}
8ccn
8b
8a
=60
{8g
8b
8dd}
8gg
8ee#
8ff#
=61
{8b
8e#
8G#}
8e#
8b
8dd
=62
8cc#
8a
8g#
8f#
8c#
8e#
=63
{8f#
8a#
8cc#}
8ee
8dd
8b
=64
{8cc#
8a#
4.f#}
8cc#
=65
8cc#
8ff#
8cc#
8a#
8f#
8d
=66
8G#
8e
8A#
8f#
8cc#
8ee
=67
{8dd
8f#
8B}
8f#
8b
8dd
=68
8ee
8a
{8d#
8a
8ff#}
8a
=69
8g
8e
8g
8b
8ee
8gg
=70
8aa
8dd
{8g#
8dd
8bb}
8dd
=71
8ccn
8ee
8aa
8ff#
8gg
8ee
=72
{8dd#
8ff#
8aa}
8cccn
8bb
8a
=73
8g
8bb
8aa
8f#
8e
8gg
=74
{8ff#
8b
8d#}
8a
8g
8f#
=75
8e
8gg
8ff#
8dn
8cn
8ee
=76
{8dd
8g#
8B}
8ffn
8ee
8dd
=77
8ccn
8a
8cc
8ee
8ffn
8aa
=78
{8dd#
8f#
8A}
8ff#
8dd#
8b
=79
8bb
8gg
8ee
8gg
8b
8dd#
=80
{8e
8f#
8g}
8b
8dd#
8ee
=81
{8gg#
8b
8d}
8b
8ee
8gg
=82
8aa
8ee
8cc#
8ee
8cc#
8a
=83
8f#
8dd
8b
8g#
8ee
8dd
=84
8cc#
8ee
8cc#
8a
8e
8gn
=85
8f#
8aa
8gg
8e
8d
8ff#
=86
{8ee
8a
8c#}
8b
8a
8g
=87
8f#
8dd
8cc#
8e
8d
8b
=88
{8c#
8e
8g}
8b
8a
8g
=89
8f#
8cn
8B
8g
8a
8A
=90
{8G
8d
8b}
8dd
8cc#
8ee
=91
8aa
8g
8f#
8dd
8A
8cc#
=92
8dd
{8d
8c#
8B
8A#
8B}
=93
8A#
8c#
8f#
8a#
8cc#
8ee
=94
8dd
8ff#
8dd
8b
8g#
8b
=95
8e#
8g#
8cc#
8ee#
8gg#
8bb
=96
8aa#
8ccc#
8aa#
8ff#
8cc#
8een
=97
8dd#
8cccn
8bb
8a
8g#
8ddn
=98
8cc#
8bb
8aa
8gn
8f#
8ccn
=99
8b
8aa
8gg
8f#
8e
8b
=100
8a#
8gg
8ff#
8e
8d#
8an
=101
8g#
8b
8dd
8ff#
8ee
8d
=102
{8c#
8B
8A#}
8gg
8ff#
8ee
=103
8dd
8ff#
8dd
8b
8f#
8a#
=104
{8b
8an
8g
8f#
8e
8d#
=105
8e
8d#
8e}
8G#
8e
8ddn
=106
{8cc#
8b
8a
8g#
8f#
8e#
=107
{8f#
8e#
8f#}
8A#
8f#
8een
=108
{8dd#
8ff#
8aan}
8cccn
8bb
8aa
=109
{8gg
8ff#
8ee#}
8ff#
{8cc#
8dd
=110
8een}
{8a#
8b
8cc#}
8f#
8a#
=111
8B
8d
8f#
8b
8dd
8ff#
=112
2bb
8r
8cc#
=113
8cc#
8ff#
8cc#
8a#
8f#
8d
=114
8G#
8e
8A#
8f#
8cc#
8ee
=115
{8dd
8f#
8B}
8f#
8b
8dd
=116
8ee
8a
{8d#
8a
8ff#}
8a
=117
8g
8e
8g
8b
8ee
8gg
=118
8aa
8dd
{8g#
8dd
8bb}
8dd
=119
8ccn
8ee
8aa
8ff#
8gg
8ee
=120
{8dd#
8ff#
8aa}
8cccn
8bb
8a
=121
8g
8bb
8aa
8f#
8e
8gg
=122
{8ff#
8b
8d#}
8a
8g
8f#
=123
8e
8gg
8ff#
8dn
8cn
8ee
=124
{8dd
8g#
8B}
8ffn
8ee
8dd
=125
8ccn
8a
8cc
8ee
8ffn
8aa
=126
{8dd#
8f#
8A}
8ff#
8dd#
8b
=127
8bb
8gg
8ee
8gg
8b
8dd#
=128
{8e
8f#
8g}
8b
8dd#
8ee
=129
{8gg#
8b
8d}
8b
8ee
8gg
=130
8aa
8ee
8cc#
8ee
8cc#
8a
=131
8f#
8dd
8b
8g#
8ee
8dd
=132
8cc#
8ee
8cc#
8a
8e
8gn
=133
8f#
8aa
8gg
8e
8d
8ff#
=134
{8ee
8a
8c#}
8b
8a
8g
=135
8f#
8dd
8cc#
8e
8d
8b
=136
{8c#
8e
8g}
8b
8a
8g
=137
8f#
8cn
8B
8g
8a
8A
=138
{8G
8d
8b}
8dd
8cc#
8ee
=139
8aa
8g
8f#
8dd
8A
8cc#
=140
8dd
{8d
8c#
8B
8A#
8B}
=141
8A#
8c#
8f#
8a#
8cc#
8ee
=142
8dd
8ff#
8dd
8b
8g#
8b
=143
8e#
8g#
8cc#
8ee#
8gg#
8bb
=144
8aa#
8ccc#
8aa#
8ff#
8cc#
8een
=145
8dd#
8cccn
8bb
8a
8g#
8ddn
=146
8cc#
8bb
8aa
8gn
8f#
8ccn
=147
8b
8aa
8gg
8f#
8e
8b
=148
8a#
8gg
8ff#
8e
8d#
8an
=149
8g#
8b
8dd
8ff#
8ee
8d
=150
{8c#
8B
8A#}
8gg
8ff#
8ee
=151
8dd
8ff#
8dd
8b
8f#
8a#
=152
{8b
8an
8g
8f#
8e
8d#
=153
8e
8d#
8e}
8G#
8e
8ddn
=154
{8cc#
8b
8a
8g#
8f#
8e#
=155
{8f#
8e#
8f#}
8A#
8f#
8een
=156
{8dd#
8ff#
8aan}
8cccn
8bb
8aa
=157
{8gg
8ff#
8ee#}
8ff#
{8cc#
8dd
=158
8een}
{8a#
8b
8cc#}
8f#
8a#
=159
8B
8d
8f#
8b
8dd
8ff#
=160
2bb
8r
==
*-
